!!!COM: Gaspar van Weerbeke
!!!CDT: ~1450-~1517
!!!OPR: Missa Ave regina celorum
!!!OTL: Gloria
!!!OMV: 2
!!!AGN: Mass
!!!SCT: Gas0101b
!!!SCA: Gas0101b
!!!voices: 4
**kern	**text	**kern	**text	**text	**kern	**text	**kern	**text
*part4	*part4	*part3	*part3	*part3	*part2	*part2	*part1	*part1
*staff4	*staff4	*staff3	*staff3	*staff3	*staff2	*staff2	*staff1	*staff1
*I"Bassus	*	*I"Tenor	*	*	*I"Altus	*	*I"Superius	*
*I'B	*	*I'T	*	*	*I'A	*	*I'S	*
*clefF4	*	*clefF4	*	*	*clefGv2	*	*clefGv2	*
*k[b-]	*	*k[b-]	*	*	*k[b-]	*	*k[b-]	*
*d:	*	*d:	*	*	*d:	*	*d:	*
*M3/2	*	*M3/2	*	*	*M3/2	*	*M3/2	*
*met(O)	*	*met(O)	*	*	*met(O)	*	*met(O)	*
=1	=1	=1	=1	=1	=1	=1	=1	=1
*	*	*	*	*	*col	*	*	*
1.r	.	1.r	.	.	[1.F	Et	1.F	Et
=2	=2	=2	=2	=2	=2	=2	=2	=2
1.r	.	1.r	.	.	2F]	.	4.A	in-
*	*	*	*	*	*Xcol	*	*	*
.	.	.	.	.	.	.	8B-y	.
.	.	.	.	.	4.E	in	4.c	-ter-
.	.	.	.	.	8C	.	8A	.
.	.	.	.	.	4D	.	4B-y	.
*	*	*	*	*	*lig	*	*	*
*	*	*	*	*	*col	*	*	*
.	.	.	.	.	[4E	ter-	[4G	.
=3	=3	=3	=3	=3	=3	=3	=3	=3
1.r	.	1.r	.	.	4E]	.	4G]	.
.	.	.	.	.	2C	.	4c	.
*	*	*	*	*	*Xcol	*	*	*
*	*	*	*	*	*Xlig	*	*	*
.	.	.	.	.	.	.	4A	.
.	.	.	.	.	2D	-ra	4.B-y	-ra
.	.	.	.	.	.	.	8A	.
.	.	.	.	.	4E	.	4G	.
=4	=4	=4	=4	=4	=4	=4	=4	=4
*	*edit	*	*	*	*	*	*	*
1FF	Et	1.r	.	.	4.F	pax	2F	pax
.	.	.	.	.	8E	.	.	.
.	.	.	.	.	2C	.	4r	.
.	.	.	.	.	.	.	4F	ho-
2EE	.	.	.	.	2r	.	2G	.
!!LO:LB:g=original	*	*	*	*	*	*	*	*
=5	=5	=5	=5	=5	=5	=5	=5	=5
2FF	in	1.r	.	.	2C	ho-	2A	.
1GG	ter-	.	.	.	4BB-y	.	1B-y	-mi-
.	.	.	.	.	2D	.	.	.
.	.	.	.	.	4BB-y	.	.	.
=6	=6	=6	=6	=6	=6	=6	=6	=6
4.AA	-ra	1.r	.	.	4.C	-mi-	4A	.
.	.	.	.	.	.	.	2c	.
8BB-y	.	.	.	.	8D	.	.	.
4C	.	.	.	.	4E	.	.	.
4D	pax	.	.	.	4F	.	2A	.
*	*Xedit	*	*	*	*	*	*	*
2BB-y	ho-	.	.	.	4.D	.	.	.
.	.	.	.	.	.	.	4G	.
.	.	.	.	.	8E	.	.	.
=7	=7	=7	=7	=7	=7	=7	=7	=7
4AA	.	1.r	.	.	4F	.	4A	.
*	*	*	*	*	*lig	*	*	*
2GG	-mi-	.	.	.	2G	.	4.B-y	.
.	.	.	.	.	.	.	8A	.
4AA	.	.	.	.	2F	.	4F	.
*	*	*	*	*	*Xlig	*	*	*
4BB-y	.	.	.	.	.	.	2G	-ni-
4C	.	.	.	.	4E	-ni-	.	.
=8	=8	=8	=8	=8	=8	=8	=8	=8
8DL	-ni-	1F	Bo-	A-	2F	-bus	2F	-bus
8C	.	.	.	.	.	.	.	.
8BB-y	.	.	.	.	.	.	.	.
8AAJ	.	.	.	.	.	.	.	.
2BB-y	-bus	.	.	.	2D	bo-	4r	.
.	.	.	.	.	.	.	4B-y	bo-
4.C	bo-	4.E	-ne	.	4C	.	4A	.
.	.	.	.	.	4c	-ne	[4G	.
8BB-y	.	8C	.	.	.	.	.	.
!!LO:LB:g=original
=9	=9	=9	=9	=9	=9	=9	=9	=9
4GG	.	4D	vo-	.	4B-y	.	4G]	.
4AA	.	2C	-lun-	.	4A	.	2c	-ne
2FF	-ne	.	.	.	2.c	vo-	.	.
.	.	2F	-ta-	.	.	.	8B-yL	.
.	.	.	.	.	.	.	8AJ	.
4r	.	.	.	.	.	.	2G	.
[4C	vo-	4E	.	.	8B-yL	.	.	.
.	.	.	.	.	8AJ	.	.	.
=10	=10	=10	=10	=10	=10	=10	=10	=10
4C]	.	2E	-tis.	-ve	4.G	-lun-	2r	.
8BB-yL	-lun-	.	.	.	.	.	.	.
8AAJ	.	.	.	.	8A	.	.	.
2GG	-ta-	2r	.	.	8B-yL	.	1g	vo-
.	.	.	.	.	8A	.	.	.
.	.	.	.	.	8G	.	.	.
.	.	.	.	.	8FJ	.	.	.
2C	-tis.	2r	.	.	4.E	-ta-	.	.
.	.	.	.	.	8D	.	.	.
=11	=11	=11	=11	=11	=11	=11	=11	=11
*	*	*	*edit	*	*	*	*	*
*	*	*lig	*	*	*	*	*	*
*	*	*col	*	*	*	*	*	*
2r	.	1F	Lau-	re	4F	.	4a	-lun-
.	.	.	.	.	4c	.	4.a	-ta-
2r	.	.	.	.	4.A	.	.	.
.	.	.	.	.	.	.	8g	.
.	.	.	.	.	.	.	4f	.
.	.	.	.	.	8B-y	.	.	.
2C	Lau-	[2G	-da-	gi	2c	-tis.	2e	.
=12	=12	=12	=12	=12	=12	=12	=12	=12
2BB-y	-da-	2G]	.	.	2r	.	2d	-tis.
2AA	.	1A	-mus,	na	2c	Lau-	4r	.
*	*	*Xcol	*	*	*	*	*	*
*	*	*Xlig	*	*	*	*	*	*
.	.	.	.	.	.	.	4.c	Lau-
4FF	.	.	.	.	2A	-da-	.	.
.	.	.	.	.	.	.	8d	.
[4C	.	.	.	.	.	.	[4e	-da-
!!LO:PB:g=original
=13	=13	=13	=13	=13	=13	=13	=13	=13
8C]L	.	2r	.	.	4G	.	8e]L	.
8BB-yJ	.	.	.	.	.	.	8dJ	.
4.D	.	.	.	.	4F	.	4.f	.
*	*	*	*Xedit	*	*	*	*	*
.	.	2.A	lau-	.	4.A	.	.	.
8C	.	.	.	.	.	.	8e	.
4.AA	.	.	.	.	.	.	4.c	.
.	.	.	.	.	8G	.	.	.
.	.	.	.	.	4.E	.	.	.
8BB-y	.	.	.	.	.	.	8d	.
[4C	.	[4G	-da-	.	.	.	[4e	.
.	.	.	.	.	8F	.	.	.
=14	=14	=14	=14	=14	=14	=14	=14	=14
8C]L	.	8G]L	.	.	4.G	.	8e]L	.
8BB-yJ	.	8AJ	.	.	.	.	8fJ	.
2GG	.	2B-y	.	.	.	.	2g	.
.	.	.	.	.	8F	.	.	.
.	.	.	.	.	8EL	.	.	.
.	.	.	.	.	8DJ	.	.	.
4AA	.	4A	.	.	4C	.	2f	-mus
4BB-y	.	2G	-mus	.	4D	.	.	.
4C	.	.	.	.	4E	.	4e	.
=15	=15	=15	=15	=15	=15	=15	=15	=15
4FF	-mus	1F	te.	.	4C	-mus	1f	te.
2BB-y	.	.	.	.	2D	.	.	.
4AA	.	.	.	.	4C	.	.	.
2FF	te.	2r	.	.	2C	te.	2r	.
=16	=16	=16	=16	=16	=16	=16	=16	=16
*	*	*col	*	*	*	*	*	*
1.r	.	[1.F	Be-	.	4r	.	2.f	Be-
.	.	.	.	.	4F	Be-	.	.
.	.	.	.	.	4.A	.	.	.
.	.	.	.	.	.	.	8eL	.
.	.	.	.	.	8B-y	.	8dJ	.
.	.	.	.	.	4c	.	2c	-ne-
.	.	.	.	.	[4A	-ne-	.	.
!!LO:LB:g=original
=17	=17	=17	=17	=17	=17	=17	=17	=17
1.r	.	2F]	.	.	4A]	.	2d	-di-
*	*	*Xcol	*	*	*	*	*	*
.	.	.	.	.	4F	.	.	.
.	.	4.E	-ne-	.	4.G	-di-	4e	.
.	.	.	.	.	.	.	4g	.
.	.	8C	.	.	8A	.	.	.
.	.	4D	.	.	4B-y	.	4f	.
*	*	*lig	*	*	*	*	*	*
*	*	*col	*	*	*	*	*	*
.	.	[4E	-di-	.	4c	.	4e	.
=18	=18	=18	=18	=18	=18	=18	=18	=18
1.r	.	4E]	.	.	4G	.	2g	-ci-
.	.	2C	.	.	4.c	.	.	.
*	*	*Xcol	*	*	*	*	*	*
*	*	*Xlig	*	*	*	*	*	*
.	.	.	.	.	.	.	4e	.
.	.	.	.	.	8B-y	.	.	.
.	.	2D	-ci-	.	4.B-y	.	4f	.
.	.	.	.	.	.	.	4.d	-mus
.	.	.	.	.	8A	.	.	.
.	.	4E	-mus	.	4G	.	.	.
.	.	.	.	.	.	.	8c	.
=19	=19	=19	=19	=19	=19	=19	=19	=19
*	*	*	*edit	*	*	*	*	*
2r	.	1F	te.	.	2F	.	2.A	te.
*	*edit	*	*	*	*	*	*	*
2FF	Ad-	.	.	.	2F	-ci-	.	.
.	.	.	.	.	.	.	2c	Ad-
2GG	-o-	2r	.	.	2D	-mus	.	.
.	.	.	.	.	.	.	4Bnj	.
=20	=20	=20	=20	=20	=20	=20	=20	=20
1AA	-ra-	1.r	.	.	2C	te.	4.c	-o-
.	.	.	.	.	.	.	8B-y	.
.	.	.	.	.	4r	.	8AL	.
.	.	.	.	.	.	.	8GJ	.
.	.	.	.	.	4C	Ad-	4F	.
4GG	.	.	.	.	4BB-y	-o-	4E	.
*	*	*	*	*	*lig	*	*lig	*
[4AA	.	.	.	.	[4C	-ra-	[4F	-ra-
!!LO:LB:g=original
=21	=21	=21	=21	=21	=21	=21	=21	=21
8AA]L	.	1.r	.	.	4C]	.	4F]	.
8GGJ	.	.	.	.	.	.	.	.
4.BB-y	.	.	.	.	2D	.	2G	.
*	*	*	*	*	*Xlig	*	*Xlig	*
8AA	.	.	.	.	.	.	.	.
4FF	.	.	.	.	2C	.	2F	.
2GG	.	.	.	.	.	.	.	.
.	.	.	.	.	4BB-y	.	4E	.
=22	=22	=22	=22	=22	=22	=22	=22	=22
*	*	*lig	*Xedit	*	*	*	*	*
2FF	.	2F	Glo-	.	4C	.	4F	.
.	.	.	.	.	4D	.	4A	.
1EE-X	-mus	1G	.	.	1E-X	-mus	4G	.
.	.	.	.	.	.	.	2B-y	-mus
.	.	.	.	.	.	.	8AL	.
.	.	.	.	.	.	.	8GJ	.
=23	=23	=23	=23	=23	=23	=23	=23	=23
4.FF	te.	1A	.	.	2C	te.	2F	te.
8GG	.	.	.	.	.	.	.	.
8AAL	.	.	.	.	4r	.	4r	.
8BB-yJ	.	.	.	.	.	.	.	.
*	*Xedit	*Xlig	*	*	*	*	*	*
4C	Glo-	.	.	.	4E	Glo-	4A	Glo-
4BB-y	-ri-	4G	-ri-	.	4D	-ri-	4B-y	-ri-
4AA	-fi-	[4A	-fi-	.	[4E	-fi-	[4c	-fi-
=24	=24	=24	=24	=24	=24	=24	=24	=24
4C	-ca-	8A]L	.	.	4E]	.	8c]L	.
.	.	8GJ	.	.	.	.	8B-yJ	.
4BB-y	-mus	4.B-y	-ca-	.	4F	.	4.d	-ca-
2GG	te.	.	.	.	8GL	-ca-	.	.
.	.	8AL	.	.	8F	.	8c	.
.	.	8G	.	.	8E-i	.	4.e-X	-mus
.	.	8FJ	.	.	8DJ	.	.	.
4r	.	2G	-mus	.	2E-i	-mus	.	.
.	.	.	.	.	.	.	8dL	.
4C	Gra-	.	.	.	.	.	8c	.
.	.	.	.	.	.	.	8B-J	.
!!LO:LB:g=original
=25	=25	=25	=25	=25	=25	=25	=25	=25
4.D	.	1F	te.	.	4F	te.	2A	te.
.	.	.	.	.	2A	Gra-	.	.
8E	.	.	.	.	.	.	.	.
4F	.	.	.	.	.	.	4c	Gra-
4D	-ti-	.	.	.	4F	-ti-	4d	-ti-
4C	-as	2r	.	.	4G	-as	4e	-as
[4F	a-	.	.	.	[4A	a-	[4f	a-
=26	=26	=26	=26	=26	=26	=26	=26	=26
*	*	*lig	*	*	*	*	*	*
8F]L	.	1F	Gra-	.	4A]	.	8f]L	.
8GJ	.	.	.	.	.	.	8eJ	.
4.A	-gi-	.	.	.	4.F	-gi-	2c	-gi-
8G	.	.	.	.	8E	.	.	.
4F	.	.	.	.	4D	.	4d	.
2E	-mus	[2G	.	.	2C	-mus	4.e	-mus
.	.	.	.	.	.	.	8f	.
=27	=27	=27	=27	=27	=27	=27	=27	=27
4r	.	2G]	.	.	2C	.	4.g	ti-
4.C	ti-	.	.	.	.	.	.	.
.	.	.	.	.	.	.	8f	.
.	.	1A	.	.	4r	.	8eL	.
*	*	*Xlig	*	*	*	*	*	*
8BB-yL	.	.	.	.	.	.	8dJ	.
8AA	.	.	.	.	4.c	ti-	2c	-bi
8GGJ	.	.	.	.	.	.	.	.
2FF	-bi	.	.	.	.	.	.	.
.	.	.	.	.	8B-y	.	.	.
.	.	.	.	.	4A	.	4f	pro-
=28	=28	=28	=28	=28	=28	=28	=28	=28
*	*	*lig	*	*	*	*	*	*
2GG	pro-	2B-y	-ti-	.	4.G	-bi	4e	.
.	.	.	.	.	.	.	2d	.
.	.	.	.	.	8F	.	.	.
*lig	*	*	*	*	*	*	*	*
2AA	.	2A	.	.	2E	pro-	.	.
*	*	*Xlig	*	*	*	*	*	*
.	.	.	.	.	.	.	4c	.
2BB-y	.	2G	-as	.	2D	-pter	2d	-pter
*Xlig	*	*	*	*	*	*	*	*
!!LO:PB:g=original
=29	=29	=29	=29	=29	=29	=29	=29	=29
*	*	*lig	*	*	*	*	*	*
2AA	-pter	1.A	a-	.	4C	.	2f	ma-
.	.	.	.	.	2c	ma-	.	.
4r	.	.	.	.	.	.	4e	.
4.F	ma-	.	.	.	4A	.	2a	.
.	.	.	.	.	2F	.	.	.
8E	.	.	.	.	.	.	.	.
4D	.	.	.	.	.	.	8gL	.
.	.	.	.	.	.	.	8fJ	.
=30	=30	=30	=30	=30	=30	=30	=30	=30
4.C	-gnam	1c	.	.	2G	-gnam	2e	-gnam
*	*	*Xlig	*	*	*	*	*	*
8D	.	.	.	.	.	.	.	.
4.E	.	.	.	.	2C	.	4r	.
.	.	.	.	.	.	.	4.g	glo-
8F	.	.	.	.	.	.	.	.
2G	glo-	2B-y	-gi-	.	2r	.	.	.
.	.	.	.	.	.	.	8f	.
.	.	.	.	.	.	.	4d	.
=31	=31	=31	=31	=31	=31	=31	=31	=31
4A	-ri-	2A	-mus	.	4c	glo-	4c	-ri-
4F	.	.	.	.	4A	.	4f	-am
2G	-am	1G	ti-	.	4.B-y	-ri-	4e	.
*	*	*	*	*	*	*	*lig	*
.	.	.	.	.	.	.	2d	tu-
.	.	.	.	.	8A	.	.	.
4E	tu-	.	.	.	4G	.	.	.
4C	.	.	.	.	4E	-am	[4c	.
=32	=32	=32	=32	=32	=32	=32	=32	=32
2D	.	2F	-bi	.	2D	tu-	4c]	.
*	*	*	*	*	*	*	*Xlig	*
.	.	.	.	.	.	.	4Bni	.
*	*	*lig	*	*	*	*	*	*
2C	-am.	2G	pro-	.	2E	-am.	2c	-am.
2FF	.	2A	.	.	4F	.	4r	.
*	*	*Xlig	*	*	*	*	*	*
.	.	.	.	.	[4c	Do-	[4A	Do-
!!LO:LB:g=original
=33	=33	=33	=33	=33	=33	=33	=33	=33
*lig	*	*	*	*	*	*	*	*
2FF	Do-	2F	-pter.	.	4c]	.	4A]	.
.	.	.	.	.	4A	.	4F	.
2EE-i	.	2r	.	.	2G	.	2B-y	.
*Xlig	*	*	*	*	*	*	*	*
4.FF	-mi-	2r	.	.	4.F	.	4A	.
.	.	.	.	.	.	.	[4c	-mi-
8GG	.	.	.	.	8E	.	.	.
=34	=34	=34	=34	=34	=34	=34	=34	=34
8AAL	.	1.r	.	.	4.C	-mi-	4c]	.
8BB-yJ	.	.	.	.	.	.	.	.
4.C	-ne	.	.	.	.	.	4A	.
.	.	.	.	.	8D	.	.	.
.	.	.	.	.	8EL	.	2G	.
8D	.	.	.	.	8FJ	.	.	.
4E	.	.	.	.	4G	-ne	.	.
4.F	De-	.	.	.	4A	.	4F	-ne
.	.	.	.	.	[4F	De-	[4c	De-
8G	.	.	.	.	.	.	.	.
=35	=35	=35	=35	=35	=35	=35	=35	=35
4A	.	1.r	.	.	4F]	.	8c]L	.
.	.	.	.	.	.	.	8dJ	.
4G	-us,	.	.	.	4C	-us,	4e	-us,
4F	.	.	.	.	4D	.	4.f	Rex
2B-y	Rex	.	.	.	2BB-y	Rex	.	.
.	.	.	.	.	.	.	8e	.
.	.	.	.	.	.	.	8dL	.
.	.	.	.	.	.	.	8cJ	.
[4A	ce-	.	.	.	[4F	ce-	[4c	ce-
=36	=36	=36	=36	=36	=36	=36	=36	=36
4A]	.	1.r	.	.	4F]	.	4c]	.
4G	.	.	.	.	4G	-le-	4Bnj	.
4.A	-le-	.	.	.	4C	.	4c	-le-
.	.	.	.	.	4F	.	4A	.
8G	.	.	.	.	.	.	.	.
2E	.	.	.	.	2C	.	2G	-stis,
!!LO:LB:g=original
=37	=37	=37	=37	=37	=37	=37	=37	=37
2F	-stis,	[1.F	De-	.	1c	-stis,	4r	.
.	.	.	.	.	.	.	4F	De-
4.FF	De-	.	.	.	.	.	4.A	.
8GG	.	.	.	.	.	.	8B-y	.
4AA	.	.	.	.	4r	.	4c	.
4BB-y	.	.	.	.	4B-y	De-	4d	.
=38	=38	=38	=38	=38	=38	=38	=38	=38
4AA	.	1.F]	.	.	4c	.	4c	.
4.BB-y	.	.	.	.	4B-y	.	4.d	.
.	.	.	.	.	4.d	.	.	.
8C	.	.	.	.	.	.	8e	.
4.D	-us	.	.	.	.	.	4.f	.
.	.	.	.	.	8c	.	.	.
.	.	.	.	.	[2A	-us	.	.
8E	.	.	.	.	.	.	8e	.
[4F	Pa-	.	.	.	.	.	[4c	-us
=39	=39	=39	=39	=39	=39	=39	=39	=39
8F]L	.	1F	-us	.	2A]	.	4c]	.
8E	.	.	.	.	.	.	.	.
8D	.	.	.	.	.	.	4.d	Pa-
8CJ	.	.	.	.	.	.	.	.
4BB-y	-ter	.	.	.	4B-y	Pa-	.	.
.	.	.	.	.	.	.	8e	.
4.D	om-	.	.	.	4A	.	4.f	-ter
.	.	2F	Pa-	.	4F	-ter	.	.
8CL	.	.	.	.	.	.	8e	.
8BB-y	.	.	.	.	[4B-y	om-	[4d	om-
8AAJ	.	.	.	.	.	.	.	.
=40	=40	=40	=40	=40	=40	=40	=40	=40
*	*	*lig	*	*	*	*	*	*
2BB-y	-ni-	2D	-ter	.	8B-]L	.	8d]L	.
.	.	.	.	.	8cJ	.	8c	.
.	.	.	.	.	4d	-ni-	8B-y	.
.	.	.	.	.	.	.	8AJ	.
2C	-pot-	2E	om-	.	4c	-pot-	4G	-ni-
*	*	*Xlig	*	*	*	*	*	*
.	.	.	.	.	2.G	-ens.	2c	-pot-
2GG	-ens.	2D	-ni-	.	.	.	.	.
.	.	.	.	.	.	.	4Bni	.
!!LO:LB:g=original
=41	=41	=41	=41	=41	=41	=41	=41	=41
4r	.	[1.C	-pot-	.	4A	Do-	2c	-ens.
4G	Do-	.	.	.	4G	.	.	.
4G	.	.	.	.	2E	-mi-	2r	.
4A	-mi-	.	.	.	.	.	.	.
4G	.	.	.	.	2C	-ne	2g	Do-
[4E	-ne	.	.	.	.	.	.	.
=42	=42	=42	=42	=42	=42	=42	=42	=42
4E]	.	1.C]	.	.	4r	.	4a	-mi-
2.C	Fi-	.	.	.	4G	Fi-	4g	.
.	.	.	.	.	4A	.	2e	-ne
.	.	.	.	.	4G	.	.	.
4.AA	-li	.	.	.	2A	.	4.c	Fi-
8GG	.	.	.	.	.	.	8B-y	.
=43	=43	=43	=43	=43	=43	=43	=43	=43
4EE	u-	1.C	-ens.	.	4G	-li	4G	-li
4FF	.	.	.	.	4F	.	4A	u-
4EE	-ni-	.	.	.	4r	.	4G	-ni-
4.FF	-ge-	.	.	.	2.F	u-	2c	-ge-
8GG	.	.	.	.	.	.	.	.
4AA	-ni-	.	.	.	.	.	4A	-ni-
=44	=44	=44	=44	=44	=44	=44	=44	=44
4GG	-te	2.D	Do-	.	4G	.	4.B-y	-te
2BB-y	Je-	.	.	.	4D	-ni-	.	.
.	.	.	.	.	.	.	8c	.
.	.	.	.	.	4G	-ge-	4d	.
4GG	.	2.E	-mi-	.	2.A	-ni-	4.c	Je-
2C	.	.	.	.	.	.	.	.
.	.	.	.	.	.	.	8d	.
.	.	.	.	.	.	.	4e	.
!!LO:PB:g=original
=45	=45	=45	=45	=45	=45	=45	=45	=45
*	*	*lig	*	*	*	*	*	*
4BB-y	.	2.F	-ne	.	4B-y	-te	4.d	.
2D	.	.	.	.	8FL	Je-	.	.
.	.	.	.	.	8GJ	.	8e	.
.	.	.	.	.	8AL	.	4f	.
.	.	.	.	.	8B-yJ	.	.	.
4C	.	2.G	Fi-	.	4c	.	4.e	.
*	*	*Xlig	*	*	*	*	*	*
2E	-su	.	.	.	4F	-su	.	.
.	.	.	.	.	.	.	8f	.
.	.	.	.	.	4c	Chri-	4g	.
=46	=46	=46	=46	=46	=46	=46	=46	=46
4D	.	2A	-li	.	4d	.	4f	-su
2F	Chri-	.	.	.	2c	.	2a	Chri-
*	*	*lig	*	*	*	*	*	*
.	.	2F	u-	.	.	.	.	.
4D	.	.	.	.	4Bnj	.	2f	.
2C	-ste.	2G	-ni-	.	2c	-ste.	.	.
*	*	*Xlig	*	*	*	*	*	*
.	.	.	.	.	.	.	4e	.
=47	=47	=47	=47	=47	=47	=47	=47	=47
*	*	*lig	*	*	*	*	*	*
4r	.	1.F	-ge-	.	4A	Do-	2f	-ste.
2D	Do-	.	.	.	4F	.	.	.
.	.	.	.	.	4A	.	2r	.
4BB-y	.	.	.	.	4B-y	.	.	.
2AA	-mi-	.	.	.	2c	.	2a	Do-
=48	=48	=48	=48	=48	=48	=48	=48	=48
4.GG	-ne	[1.G	-ni-	.	4B-y	.	4b-y	.
.	.	.	.	.	4e-X	.	2g	.
8AA	.	.	.	.	.	.	.	.
4BB-y	.	.	.	.	4d	.	.	.
4C	.	.	.	.	2c	-mi-	4e	.
2GG	.	.	.	.	.	.	2d	-mi-
.	.	.	.	.	4Bni	.	.	.
!!LO:LB:g=original
=49	=49	=49	=49	=49	=49	=49	=49	=49
2C	.	1.G]	.	.	2c	-ne	4c	-ne
*	*	*Xlig	*	*	*	*	*	*
.	.	.	.	.	.	.	2e	De-
2r	.	.	.	.	4.G	De-	.	.
.	.	.	.	.	.	.	2d	.
.	.	.	.	.	8F	.	.	.
2C	De-	.	.	.	2E	.	.	.
.	.	.	.	.	.	.	4c	.
=50	=50	=50	=50	=50	=50	=50	=50	=50
*	*	*lig	*	*	*	*	*	*
2F	-us,	1.A	-te	.	4.D	-us,	2d	-us,
.	.	.	.	.	8E	.	.	.
2r	.	.	.	.	1F	.	4.d	A-
.	.	.	.	.	.	.	8e	.
2D	A-	.	.	.	.	.	2f	.
=51	=51	=51	=51	=51	=51	=51	=51	=51
2G	-gnus	1.B-y	Je-	.	2r	.	2d	-gnus
4.E-X	De-	.	.	.	4r	.	4.g	De-
.	.	.	.	.	4G	A-	.	.
8D	.	.	.	.	.	.	8f	.
4.BB-y	.	.	.	.	4.F	.	4d	.
.	.	.	.	.	.	.	[4B-y	.
8C	.	.	.	.	8E-i	.	.	.
=52	=52	=52	=52	=52	=52	=52	=52	=52
4D	.	1B.-y	-su	.	4F	.	8B-]L	.
*	*	*Xlig	*	*	*	*	*	*
.	.	.	.	.	.	.	8cJ	.
4GG	-i,	.	.	.	4G	.	2d	.
4D	Fi-	.	.	.	4D	-gnus	.	.
4.E-i	.	.	.	.	2G	De-	4G	-i,
.	.	.	.	.	.	.	4g	Fi-
8D	.	.	.	.	.	.	.	.
4BB-y	.	.	.	.	[4F	-i,	4d	.
!!LO:LB:g=original
=53	=53	=53	=53	=53	=53	=53	=53	=53
*	*	*lig	*	*	*	*	*	*
2C	-li-	2A	Chri-	.	4F]	.	2e-j	-li-
.	.	.	.	.	4E-j	Fi-	.	.
4BB-y	.	2B-y	-ste.	.	4F	.	4d	.
*	*	*Xlig	*	*	*	*	*	*
4E-i	.	.	.	.	4G	.	4g	.
4D	.	2r	.	.	4A	-li-	4f	.
4G	.	.	.	.	4B-y	.	[4g	-us
=54	=54	=54	=54	=54	=54	=54	=54	=54
4C	-us	2.c	Fi-	.	4G	-us	4g]	.
2F	.	.	.	.	4.F	Pa-	4.a	Pa-
.	.	.	.	.	8GL	.	8g	.
4.FF	Pa-	4.A	-li-	.	8A	.	2f	.
.	.	.	.	.	8B-yJ	.	.	.
.	.	.	.	.	4.c	.	.	.
8GGL	.	8G	.	.	.	.	.	.
8AA	.	4F	.	.	.	.	8eL	.
8BB-yJ	.	.	.	.	8d	.	8dJ	.
=55	=55	=55	=55	=55	=55	=55	=55	=55
4C	.	4E	.	.	4e	.	4c	.
4D	.	4D	.	.	4f	.	4f	.
4E	.	4C	-us	.	1c	.	4g	.
4F	.	4F	.	.	.	.	2f	.
2C	.	2G	Pa-	.	.	.	.	.
.	.	.	.	.	.	.	4e	.
=56	=56	=56	=56	=56	=56	=56	=56	=56
1.FFl	-tris.	1.Fl	-tris.	.	1.cl	-tris.	1.fl	-tris.
!!LO:PB:g=original
=57||	=57||	=57||	=57||	=57||	=57||	=57||	=57||	=57||
*M2/2	*	*M2/2	*	*	*M2/2	*	*M2/2	*
*met(C|)	*	*met(C|)	*	*	*met(C|)	*	*met(C|)	*
2FF	Qui	[1F	Qui	.	2c	Qui	[1f	Qui
4.FF	tol-	.	.	.	4.c	tol-	.	.
8GG	.	.	.	.	8B-y	.	.	.
=58	=58	=58	=58	=58	=58	=58	=58	=58
4AA	.	1F]	.	.	4c	.	1f]	.
4.BB-y	.	.	.	.	4.d	.	.	.
8C	.	.	.	.	8c	.	.	.
[4D	.	.	.	.	[4A	.	.	.
=59	=59	=59	=59	=59	=59	=59	=59	=59
*	*	*lig	*	*	*	*	*	*
8DL]	.	1A	tol-	.	8AL]	.	2f	tol-
8EJ	.	.	.	.	8G	.	.	.
4.F	.	.	.	.	8F	.	.	.
.	.	.	.	.	8EJ	.	.	.
.	.	.	.	.	4.D	-lis	2f	-lis
8EL	.	.	.	.	.	.	.	.
8D	.	.	.	.	.	.	.	.
8CJ	.	.	.	.	8E	.	.	.
=60	=60	=60	=60	=60	=60	=60	=60	=60
2D	-lis	1B-y	-lis	.	2F	pec-	2f	pec-
2D	pec-	.	.	.	2F	-ca-	2f	-ca-
=61	=61	=61	=61	=61	=61	=61	=61	=61
1C	-ca-	[1c	pec-	.	2G	.	2.e	.
.	.	.	.	.	[2c	.	.	.
.	.	.	.	.	.	.	4f	.
!!LO:PB:g=original
=62	=62	=62	=62	=62	=62	=62	=62	=62
*lig	*	*	*	*	*	*	*lig	*
2E	.	1c]	.	.	2c]	.	2g	.
*	*	*Xlig	*	*	*	*	*	*
2F	.	.	.	.	2A	.	[2a	.
=63	=63	=63	=63	=63	=63	=63	=63	=63
*Xlig	*	*lig	*	*	*	*	*	*
1G	-ta	1B-y	-ca-	.	2B-y	-ta	4a]	.
*	*	*	*	*	*	*	*Xlig	*
.	.	.	.	.	.	.	4g	.
.	.	.	.	.	[2d	mun-	[2g	.
=64	=64	=64	=64	=64	=64	=64	=64	=64
*lig	*	*	*	*	*	*	*	*
1D	mun-	1A	.	.	1d]	.	2g]	.
*	*	*Xlig	*	*	*	*	*	*
.	.	.	.	.	.	.	2f	-ta
=65	=65	=65	=65	=65	=65	=65	=65	=65
*	*	*lig	*	*	*	*	*	*
1E-i	.	1G	-ta	.	2B-y	.	4.g	mun-
*Xlig	*	*	*	*	*	*	*	*
.	.	.	.	.	.	.	8f	.
.	.	.	.	.	2c	.	4e-i	.
.	.	.	.	.	.	.	8dL	.
.	.	.	.	.	.	.	8cJ	.
=66	=66	=66	=66	=66	=66	=66	=66	=66
*lig	*	*	*	*	*	*	*	*
1D	-di,	1F	.	.	2d	-di,	2B-y	-di,
*	*	*Xlig	*	*	*	*	*	*
.	.	.	.	.	2D	mi-	4r	.
.	.	.	.	.	.	.	4B-y	mi-
=67	=67	=67	=67	=67	=67	=67	=67	=67
*	*	*lig	*	*	*	*	*	*
1C	.	[1G	mun-	.	2.E-X	-se-	2.c	-se-
*Xlig	*	*	*	*	*	*	*	*
.	.	.	.	.	8DL	.	8B-yL	.
.	.	.	.	.	8CJ	.	8AJ	.
!!LO:LB:g=original
=68	=68	=68	=68	=68	=68	=68	=68	=68
1r	.	1G]	.	.	4.E-i	-re-	8B-yL	.
.	.	.	.	.	.	.	8A	.
.	.	.	.	.	.	.	8G	.
.	.	.	.	.	8D	.	8FJ	.
.	.	.	.	.	2C	-re	2E-i	.
=69	=69	=69	=69	=69	=69	=69	=69	=69
2FF	mi-	1A	.	.	2r	.	2.F	-re-
[2FF	-se-	.	.	.	[2c	no-	.	.
.	.	.	.	.	.	.	4G	.
=70	=70	=70	=70	=70	=70	=70	=70	=70
4FF]	.	1F	-di,	.	2c]	.	4.A	.
*	*	*Xlig	*	*	*	*	*	*
4GG	.	.	.	.	.	.	.	.
.	.	.	.	.	.	.	8B-y	.
2AA	.	.	.	.	2A	.	2c	-re
=71	=71	=71	=71	=71	=71	=71	=71	=71
4.BB-y	-re-	1r	.	.	2F	-bis.	4.d	no-
8AA	.	.	.	.	.	.	8c	.
8GGL	.	.	.	.	4r	.	8B-yL	.
8FFJ	.	.	.	.	.	.	8AJ	.
[4EE-i	.	.	.	.	[4G	Qui	[4B-y	.
=72	=72	=72	=72	=72	=72	=72	=72	=72
4EE-]	.	1r	.	.	4G]	.	4B-]	.
*	*	*	*	*	*	*edit	*	*
4FF	.	.	.	.	2F	tol-	4A	.
2C	-re	.	.	.	.	.	2G	.
.	.	.	.	.	4E	.	.	.
=73	=73	=73	=73	=73	=73	=73	=73	=73
*	*	*lig	*	*	*	*	*	*
4r	.	1F	mi-	.	4.F	.	2F	-bis.
4.D	no-	.	.	.	.	.	.	.
.	.	.	.	.	8G	.	.	.
.	.	.	.	.	[2A	.	2r	.
8E	.	.	.	.	.	.	.	.
[4F	.	.	.	.	.	.	.	.
!!LO:LB:g=original
=74	=74	=74	=74	=74	=74	=74	=74	=74
8F]L	.	1D	.	.	2A]	.	2f	Qui
*	*	*Xlig	*	*	*	*	*	*
8E	.	.	.	.	.	.	.	.
8D	.	.	.	.	.	.	.	.
8CJ	.	.	.	.	.	.	.	.
4.BB-y	.	.	.	.	2B-y	-lis,	2f	tol-
8AA	.	.	.	.	.	.	.	.
=75	=75	=75	=75	=75	=75	=75	=75	=75
*	*	*lig	*	*	*	*	*	*
1C	-bis.	1E	-se	.	4r	.	4e	.
*	*	*	*	*	*	*Xedit	*	*
.	.	.	.	.	4.G	tol-	2g	.
.	.	.	.	.	8A	.	.	.
.	.	.	.	.	4c	.	4c	.
=76	=76	=76	=76	=76	=76	=76	=76	=76
2r	.	1D	re	.	4B-y	.	4d	.
.	.	.	.	.	4.d	.	2f	.
2F	Qui	.	.	.	.	.	.	.
.	.	.	.	.	8A	.	.	.
.	.	.	.	.	4B-y	.	8eL	.
.	.	.	.	.	.	.	8dJ	.
=77	=77	=77	=77	=77	=77	=77	=77	=77
*	*edit	*	*	*	*	*	*	*
4G	tol-	[1C	re	.	2c	-lis	4e	.
2A	.	.	.	.	.	.	2c	-lis
.	.	.	.	.	2r	.	.	.
8GL	.	.	.	.	.	.	8B-yL	.
8FJ	.	.	.	.	.	.	8AJ	.
=78	=78	=78	=78	=78	=78	=78	=78	=78
2.E	.	1C]	.	.	1c	pec-	2G	pec-
*	*	*Xlig	*	*	*	*	*	*
.	.	.	.	.	.	.	[2A	-ca-
4C	.	.	.	.	.	.	.	.
=79	=79	=79	=79	=79	=79	=79	=79	=79
*	*	*lig	*	*	*lig	*	*	*
2F	.	1D	no-	.	2A	-ca-	4A]	.
.	.	.	.	.	.	.	4F	.
2BB-y	-lis	.	.	.	2F	.	[2B-y	.
*	*	*	*	*	*Xlig	*	*	*
!!LO:LB:g=original
=80	=80	=80	=80	=80	=80	=80	=80	=80
2r	.	1E	.	.	2G	.	4B-]	.
.	.	.	.	.	.	.	4G	.
*	*Xedit	*	*	*	*	*	*	*
2AA	pec-	.	.	.	[2C	.	[2c	.
=81	=81	=81	=81	=81	=81	=81	=81	=81
2FF	-ca-	1F	.	.	4C]	.	4c]	.
.	.	.	.	.	2F	.	4A	.
2BB-y	.	.	.	.	.	.	[2d	-ta
.	.	.	.	.	[4D	-ta	.	.
=82	=82	=82	=82	=82	=82	=82	=82	=82
2GG	-ta	[1G	.	.	4D]	.	4d]	.
.	.	.	.	.	4.G	mun-	4B-y	mun-
4C	mun-	.	.	.	.	.	4e-i	.
.	.	.	.	.	8A	.	.	.
4BB-y	.	.	.	.	4B-y	.	[4d	.
=83	=83	=83	=83	=83	=83	=83	=83	=83
4C	.	2G]	.	.	4G	.	4d]	.
*	*	*Xlig	*	*	*	*	*	*
4E-i	.	.	.	.	4C	.	2c	.
2D	.	2F	.	.	4D	.	.	.
.	.	.	.	.	[4F	.	4Bni	.
=84	=84	=84	=84	=84	=84	=84	=84	=84
*	*	*lig	*	*	*	*	*	*
1C	-di,	1G	-bis.	.	4F]	.	1c	-di,
.	.	.	.	.	4E	.	.	.
.	.	.	.	.	4.E	.	.	.
.	.	.	.	.	8D	.	.	.
=85	=85	=85	=85	=85	=85	=85	=85	=85
2.FF	sus-	1F	.	.	2F	-di,	2.A	sus-
*	*	*Xlig	*	*	*	*	*	*
.	.	.	.	.	[2F	sus-	.	.
4FF	-ci-	.	.	.	.	.	4A	-ci-
!!LO:PB:g=original
=86	=86	=86	=86	=86	=86	=86	=86	=86
2FF	-pe	1r	.	.	4F]	.	2A	-pe
.	.	.	.	.	4F	-ci-	.	.
[2BB-y	de-	.	.	.	2F	-pe	2F	.
=87	=87	=87	=87	=87	=87	=87	=87	=87
2BB-]	.	1r	.	.	2D	.	1B-y	de-
2GG	-pre-	.	.	.	[2G	de-	.	.
=88	=88	=88	=88	=88	=88	=88	=88	=88
1C	-ca-	1r	.	.	2G]	.	2G	-pre-
.	.	.	.	.	2E	-pre-	[2c	-ca-
=89	=89	=89	=89	=89	=89	=89	=89	=89
2AA	-ti-	1r	.	.	2C	-ca-	2c]	.
2FF	.	.	.	.	[2c	.	2A	-ti-
=90	=90	=90	=90	=90	=90	=90	=90	=90
1F	-o-	1r	.	.	2c]	.	2F	.
.	.	.	.	.	2A	-ti	[2f	-o-
=91	=91	=91	=91	=91	=91	=91	=91	=91
2D	.	1r	.	.	4F	o-	4f]	.
.	.	.	.	.	4.B-y	.	2d	.
[2BB-y	-nem	.	.	.	.	.	.	.
.	.	.	.	.	8A	.	.	.
.	.	.	.	.	[4G	.	[4B-y	-nem
!!LO:LB:g=original
=92	=92	=92	=92	=92	=92	=92	=92	=92
4BB-]	.	1r	.	.	4G]	.	4B-]	.
4AA	.	.	.	.	2F	.	4F	.
2GG	.	.	.	.	.	.	4G	.
.	.	.	.	.	4E	.	4B-y	.
=93	=93	=93	=93	=93	=93	=93	=93	=93
4.FF	no-	1F	Sus-	.	2F	-nem	4.A	no-
8GG	.	.	.	.	.	.	8B-y	.
4AA	.	.	.	.	2r	.	4c	.
4BB-y	.	.	.	.	.	.	4d	.
=94	=94	=94	=94	=94	=94	=94	=94	=94
4C	.	4E	-ci-	.	4A	no-	4e	.
2D	.	2F	-pe	.	2B-y	.	4d	.
.	.	.	.	.	.	.	2f	.
[4C	.	[4G	de-	.	[4c	.	.	.
=95	=95	=95	=95	=95	=95	=95	=95	=95
4C]	.	4G]	.	.	4c]	.	4e	.
4D	.	4F	.	.	4B-y	.	4f	.
*	*	*	*	*	*	*	*lig	*
4.C	.	2G	-pre-	.	2c	.	2e	.
8D	.	.	.	.	.	.	.	.
=96	=96	=96	=96	=96	=96	=96	=96	=96
4F	.	2A	-ca-	.	4F	-stram.	2d	.
*	*	*	*	*	*	*	*Xlig	*
2E	.	.	.	.	4G	.	.	.
.	.	4G	.	.	4E	.	4c	.
[4D	-stram.	[4A	-ti-	.	[4F	Qui	[4d	-stram.
=97	=97	=97	=97	=97	=97	=97	=97	=97
4D]	.	4A]	.	.	4F]	.	2d]	.
4BB-y	Qui	2B-y	-o-	.	4D	.	.	.
2C	.	.	.	.	2C	.	2e	Qui-
.	.	4A	.	.	.	.	.	.
!!LO:LB:g=original
=98	=98	=98	=98	=98	=98	=98	=98	=98
2GG	se-	2B-y	.	.	2BB-y	se-	4d	.
.	.	.	.	.	.	.	2g	-se-
2DD	-des	2A	.	.	2D	.	.	.
.	.	.	.	.	.	.	4f	.
=99	=99	=99	=99	=99	=99	=99	=99	=99
1r	.	4G	.	.	4E	.	4e	.
*	*	*	*	*	*	*	*lig	*
.	.	2A	.	.	4.F	.	2d	.
.	.	.	.	.	8E	.	.	.
.	.	[4G	.	.	4C	.	[4c	.
=100	=100	=100	=100	=100	=100	=100	=100	=100
2r	.	4G]	.	.	2D	.	4c]	.
*	*	*	*	*	*	*	*Xlig	*
.	.	4F	.	.	.	.	4Bni	.
2C	ad	2G	-nem	.	2C	-des	[2c	-des
=101	=101	=101	=101	=101	=101	=101	=101	=101
4AA	dex-	4F	.	.	4r	.	4c]	.
4FF	.	2F	no-	.	4.c	ad	8B-yL	.
.	.	.	.	.	.	.	8AJ	.
2C	-te-	.	.	.	.	.	2G	.
.	.	.	.	.	8B-y	.	.	.
.	.	4E	.	.	4G	.	.	.
=102	=102	=102	=102	=102	=102	=102	=102	=102
1FF	-ram	1F	-stram.	.	4.A	dex-	2r	.
.	.	.	.	.	8F	.	.	.
.	.	.	.	.	4A	.	[2F	ad
.	.	.	.	.	[4c	-te-	.	.
=103	=103	=103	=103	=103	=103	=103	=103	=103
*lig	*	*	*	*	*	*	*	*
2FF	Pa-	1r	.	.	4c]	.	2F]	.
.	.	.	.	.	4A	.	.	.
2EE-i	.	.	.	.	4B-y	.	2G	dex-
*Xlig	*	*	*	*	*	*	*	*
.	.	.	.	.	4G	.	.	.
!!LO:LB:g=original
=104	=104	=104	=104	=104	=104	=104	=104	=104
2FF	-tris,	1r	.	.	2F	-ram	4A	.
.	.	.	.	.	.	.	2c	-te-
*	*	*	*	*	*lig	*	*	*
2r	.	.	.	.	2F	Pa-	.	.
.	.	.	.	.	.	.	4A	-ram
=105	=105	=105	=105	=105	=105	=105	=105	=105
1r	.	2r	.	.	2E-i	.	4B-y	Pa-
*	*	*	*	*	*Xlig	*	*	*
.	.	.	.	.	.	.	4G	.
.	.	[2F	Quo-	.	4F	-tris,	2F	-tris,
.	.	.	.	.	[4c	mi-	.	.
=106	=106	=106	=106	=106	=106	=106	=106	=106
1r	.	2F]	.	.	4c]	.	4r	.
.	.	.	.	.	4A	.	2f	mi-
.	.	2G	-ni-	.	2G	.	.	.
.	.	.	.	.	.	.	4e	.
=107	=107	=107	=107	=107	=107	=107	=107	=107
*	*	*	*	*	*lig	*	*	*
1FF	mi-	1A	-am	.	2F	-se-	2.f	-se-
.	.	.	.	.	2A	.	.	.
*	*	*	*	*	*Xlig	*	*	*
.	.	.	.	.	.	.	4e	.
=108	=108	=108	=108	=108	=108	=108	=108	=108
2GG	-se-	2B-y	tu	.	2G	.	2d	.
4AA	.	[2A	so-	.	4.C	-re-	[2c	-re-
[4C	-re-	.	.	.	.	.	.	.
.	.	.	.	.	8D	.	.	.
=109	=109	=109	=109	=109	=109	=109	=109	=109
4C]	.	2A]	.	.	4E	.	2c]	.
4AA	.	.	.	.	4F	.	.	.
4BB-y	.	2G	.	.	4G	.	2B-y	.
4GG	.	.	.	.	4E	-re	.	.
!!LO:PB:g=original
=110	=110	=110	=110	=110	=110	=110	=110	=110
2FF	-re	2A	-lus	.	4.F	no-	4A	-re
.	.	.	.	.	.	.	2c	no-
.	.	.	.	.	8E	.	.	.
2r	.	2r	.	.	4C	.	.	.
.	.	.	.	.	[4D	.	4B-y	.
=111	=111	=111	=111	=111	=111	=111	=111	=111
1r	.	1r	.	.	8D]L	.	4A	.
.	.	.	.	.	8CJ	.	.	.
.	.	.	.	.	4D	.	4F	.
.	.	.	.	.	[2E	-bis.	2G	.
=112	=112	=112	=112	=112	=112	=112	=112	=112
4.AA	no-	2.c	san-	.	2E]	.	2A	-bis.
8BB-y	.	.	.	.	.	.	.	.
4C	.	.	.	.	2r	.	2r	.
[4D	.	4B-y	.	.	.	.	.	.
=113	=113	=113	=113	=113	=113	=113	=113	=113
8D]L	.	4A	.	.	1r	.	1r	.
8CJ	.	.	.	.	.	.	.	.
4D	.	4F	.	.	.	.	.	.
2E	-bis.	2G	.	.	.	.	.	.
=114	=114	=114	=114	=114	=114	=114	=114	=114
4.AA	Quo-	[1A	-ctus,	.	2E	Quo-	1r	.
8BB-y	.	.	.	.	.	.	.	.
4C	-ni-	.	.	.	4E	-ni-	.	.
[4D	-am	.	.	.	[4F	-am	.	.
=115	=115	=115	=115	=115	=115	=115	=115	=115
4D]	.	1A]	.	.	4F]	.	2r	.
4C	tu	.	.	.	4E	tu	.	.
4.AA	so-	.	.	.	2E	so-	2a	Quo
8BB-y	.	.	.	.	.	.	.	.
!!LO:LB:g=original
=116	=116	=116	=116	=116	=116	=116	=116	=116
2C	-lus	2r	.	.	2E	-lus	2g	ni-
*lig	*	*	*	*	*	*	*	*
2FF	san-	2A	Tu	.	2F	san-	2a	-am
=117	=117	=117	=117	=117	=117	=117	=117	=117
2EE-i	.	2G	so-	.	2G	.	2b-y	tu
*Xlig	*	*	*	*	*	*	*	*
2FF	-ctus.	2A	-lus	.	4F	.	4a	so-
.	.	.	.	.	[4F	.	4f	-lus
=118	=118	=118	=118	=118	=118	=118	=118	=118
2r	.	2B-y	Al-	.	4F]	.	2g	san-
.	.	.	.	.	4E	.	.	.
2FF	Tu	4A	-tis-	.	2F	-ctus.	4f	.
.	.	4F	.	.	.	.	[4f	-ctus.
=119	=119	=119	=119	=119	=119	=119	=119	=119
2C	so-	2G	-si-	.	2r	.	4f]	.
.	.	.	.	.	.	.	4e	Tu
[2D	.	[2F	-mus,	.	[2A	Tu	[2f	so-
=120	=120	=120	=120	=120	=120	=120	=120	=120
4D]	.	1F]	.	.	4A]	.	4f]	.
4C	.	.	.	.	4B-y	so-	4e-i	.
4AA	-lus	.	.	.	4c	-lus	4c	-lus
[4BB-y	Do-	.	.	.	[4B-y	Do-	[4d	Do-
=121	=121	=121	=121	=121	=121	=121	=121	=121
4BB-]	.	1G	Je-	.	8B-]L	.	8d]L	.
.	.	.	.	.	8A	.	8cJ	.
4BB-y	-mi-	.	.	.	8G	.	4d	.
.	.	.	.	.	8FJ	.	.	.
2C	.	.	.	.	2E	.	2e	.
!!LO:LB:g=original
=122	=122	=122	=122	=122	=122	=122	=122	=122
*	*	*lig	*	*	*	*	*	*
2AA	-nus.	2A	.	.	2E	-mi-	2c	-mi-
[2A	Tu	2F	.	.	2F	.	2f	.
*	*	*Xlig	*	*	*	*	*	*
=123	=123	=123	=123	=123	=123	=123	=123	=123
*	*	*lig	*	*	*	*	*	*
4A]	.	2G	.	.	2C	-nus.	2e	-nus.
4G	.	.	.	.	.	.	.	.
[2G	so-	2E	.	.	4r	.	2e	Tu
.	.	.	.	.	4c	Tu	.	.
=124	=124	=124	=124	=124	=124	=124	=124	=124
2G]	.	1D	.	.	8dL	so-	2.f	so-
*	*	*Xlig	*	*	*	*	*	*
.	.	.	.	.	8c	.	.	.
.	.	.	.	.	8B-y	.	.	.
.	.	.	.	.	8AJ	.	.	.
2F	.	.	.	.	2B-y	.	.	.
.	.	.	.	.	.	.	4d	-lus
=125	=125	=125	=125	=125	=125	=125	=125	=125
*	*	*	*	*	*	*	*lig	*
2G	-lus	2C	-su	.	2c	-lus	2e	Al-
2GG	Al-	2G	Chri-	.	2B-y	Al-	[2d	.
=126	=126	=126	=126	=126	=126	=126	=126	=126
*	*	*lig	*	*	*	*	*	*
2AA	-tis-	2E	.	.	2A	-tis-	4d]	.
*	*	*	*	*	*	*	*Xlig	*
.	.	.	.	.	.	.	4c	.
2C	-si-	2C	.	.	[2G	-si-	[2c	-tis-
=127	=127	=127	=127	=127	=127	=127	=127	=127
1GG	-mus,	1D	.	.	2G]	.	2c]	.
*	*	*Xlig	*	*	*	*	*	*
.	.	.	.	.	2G	-mus,	2Bni	-si-
!!LO:LB:g=original
=128	=128	=128	=128	=128	=128	=128	=128	=128
2G	Je-	1C	-ste.	.	2.E	Je-	1c	-mus,
[2A	-su	.	.	.	.	.	.	.
.	.	.	.	.	4C	.	.	.
=129	=129	=129	=129	=129	=129	=129	=129	=129
4A]	.	1r	.	.	4F	.	2.c	Je-
4G	Chri-	.	.	.	4G	.	.	.
4F	.	.	.	.	4A	-su	.	.
8EL	.	.	.	.	4B-y	.	4d	.
8DJ	.	.	.	.	.	.	.	.
=130	=130	=130	=130	=130	=130	=130	=130	=130
4C	.	1r	.	.	4c	.	4e	.
2BB-y	.	.	.	.	4.d	Chri-	4f	.
.	.	.	.	.	.	.	2g	-su
.	.	.	.	.	8c	.	.	.
8AAL	.	.	.	.	4B-y	.	.	.
8GGJ	.	.	.	.	.	.	.	.
=131	=131	=131	=131	=131	=131	=131	=131	=131
*	*edit	*	*	*	*	*	*	*
2FF	-ste,	1r	.	.	4A	.	4.a	Chri-
.	.	.	.	.	4.c	.	.	.
.	.	.	.	.	.	.	8g	.
4C	Chri-	.	.	.	.	.	4e	.
.	.	.	.	.	8B-y	.	.	.
4D	.	.	.	.	4A	.	4f	.
=132	=132	=132	=132	=132	=132	=132	=132	=132
4.E	.	1r	.	.	4G	.	4.g	.
.	.	.	.	.	4.B-y	.	.	.
8D	.	.	.	.	.	.	8f	.
4BB-y	.	.	.	.	.	.	4d	.
.	.	.	.	.	8A	.	.	.
4C	.	.	.	.	4G	.	4e	.
!!LO:PB:g=original
=133	=133	=133	=133	=133	=133	=133	=133	=133
4D	.	1r	.	.	4F	.	4.f	.
4.F	.	.	.	.	4.A-X	.	.	.
.	.	.	.	.	.	.	8e-i	.
.	.	.	.	.	.	.	4c	.
8E-i	.	.	.	.	8G	.	.	.
4D	.	.	.	.	4F	.	4d	.
=134	=134	=134	=134	=134	=134	=134	=134	=134
4.C	.	1r	.	.	4E-i	.	4.e-i	.
.	.	.	.	.	4.G	-ste.	.	.
8BB-y	.	.	.	.	.	.	8d	.
4GG	.	.	.	.	.	.	4B-y	.
.	.	.	.	.	8F	.	.	.
4AA	.	.	.	.	4E-	.	4c	.
=135	=135	=135	=135	=135	=135	=135	=135	=135
*	*Xedit	*	*	*	*	*	*	*
4.BB-y	-ste.	1r	.	.	4D	Cum	4.d	-ste,
.	.	.	.	.	2.F	San-	.	.
8AA	.	.	.	.	.	.	8c	.
2FF	.	.	.	.	.	.	2A	.
=136	=136	=136	=136	=136	=136	=136	=136	=136
2r	.	1r	.	.	4C	-cto	4G	Cum
.	.	.	.	.	4E	Spi-	2c	San-
2F	Cum	.	.	.	2D	-ri-	.	.
.	.	.	.	.	.	.	4Bni	.
=137	=137	=137	=137	=137	=137	=137	=137	=137
2G	San-	1r	.	.	2C	-tu,	2c	-cto
4F	-cto	.	.	.	4r	.	4d	.
4E	.	.	.	.	[4c	in	4e	.
!!LO:LB:g=original
=138	=138	=138	=138	=138	=138	=138	=138	=138
2F	Spi-	1r	.	.	4c]	.	4c	Spi-
.	.	.	.	.	8B-yL	.	2f	.
.	.	.	.	.	8AJ	.	.	.
2C	-ri-	.	.	.	2G	glo-	.	.
.	.	.	.	.	.	.	4e	-ri-
=139	=139	=139	=139	=139	=139	=139	=139	=139
1FF	-tu,	[1F	In	.	2.A	-ri-	1f	-tu,
.	.	.	.	.	4F	.	.	.
=140	=140	=140	=140	=140	=140	=140	=140	=140
2FF	in	1F]	.	.	2A	-a	2c	in
[2BB-y	glo-	.	.	.	4.B-y	De-	2d	glo-
.	.	.	.	.	8c	.	.	.
=141	=141	=141	=141	=141	=141	=141	=141	=141
*	*	*lig	*	*	*	*	*	*
4BB-]	.	1G	glo-	.	2d	-i	2d	-ri-
4GG	-ri-	.	.	.	.	.	.	.
[2C	-a	.	.	.	[2c	Pa-	[2e	-a
=142	=142	=142	=142	=142	=142	=142	=142	=142
4C]	.	1A	-ri-	.	4c]	.	2e]	.
*	*	*Xlig	*	*	*	*	*	*
4AA	.	.	.	.	4B-y	.	.	.
2D	De-	.	.	.	2A	.	2f	De-
=143	=143	=143	=143	=143	=143	=143	=143	=143
*	*	*lig	*	*	*	*	*	*
2GG	-i	2B-y	-a	.	2G	-tris.	2g	-i
4.C	Pa-	2c	De-	.	2r	.	4.a	Pa-
*	*	*Xlig	*	*	*	*	*	*
8D	.	.	.	.	.	.	8b-y	.
!!LO:LB:g=original
=144	=144	=144	=144	=144	=144	=144	=144	=144
4E	.	2.c	-i	.	1r	.	2cc	.
4.F	.	.	.	.	.	.	.	.
.	.	.	.	.	.	.	4a	.
8EL	.	.	.	.	.	.	.	.
8D	.	[4d	pa-	.	.	.	[4b-y	.
8CJ	.	.	.	.	.	.	.	.
=145	=145	=145	=145	=145	=145	=145	=145	=145
4.BB-y	.	8d]L	.	.	2d	A-	8b-]L	.
.	.	8c	.	.	.	.	8a	.
.	.	8B-y	.	.	.	.	8g	.
8AA	.	8AJ	.	.	.	.	8fJ	.
2C	.	2G	.	.	2c	.	4.e	.
.	.	.	.	.	.	.	8d	.
=146	=146	=146	=146	=146	=146	=146	=146	=146
2FF	-tris.	2F	-tris.	.	2A	.	2f	-tris.
*	*	*	*	*	*lig	*	*	*
[2E-X	A-	[2B-y	A-	.	[2G	.	[2g	A-
=147	=147	=147	=147	=147	=147	=147	=147	=147
2E-]	.	2B-]	.	.	2G]	.	4g]	.
.	.	.	.	.	.	.	4f	.
2F	.	2A	.	.	[2c	.	[2f	.
=148	=148	=148	=148	=148	=148	=148	=148	=148
*	*	*lig	*	*	*	*	*	*
1C	.	1G	-men.	.	1c]	.	2f]	.
*	*	*	*	*	*Xlig	*	*	*
.	.	.	.	.	.	.	2e	.
=149	=149	=149	=149	=149	=149	=149	=149	=149
*	*	*	*	*	*^	*	*	*
1FFl	-men.	1Fl	.	.	1A\l	1c/l	.	1fl	-men.
*	*	*Xlig	*	*	*	*	*	*	*
*	*	*	*	*	*v	*v	*	*	*
==	==	==	==	==	==	==	==	==
*-	*-	*-	*-	*-	*-	*-	*-	*-
!!!system-decoration: [*]
!!!RDF**kern: j = editorial accidental, optional, paren up
!!!RDF**kern: i = editorial accidental
!!!RDF**kern: l = terminal breve
!!!PTL: Gaspar van Weerbeke: Collected Works. I. Masses, Part 1
!!!ISBN: 978-1-59551-515-5
!!!PPR: American Institute of Musicology
!!!PC#: Corpus Mensurabilis Musicae 106/I.1
!!!PDT: 2016
!!!PED: Pavanello, Agnese
!!!YEC: Copyright 2014, Pavanello, Agnese
!!!YEM: CC-BY-NC 4.0 (https://creativecommons.org/licenses/by-nc/4.0/legalcode)
!!!EED: Roland Mair-Gruber
!!!EEV: 2021/10/11
!!!title: @{OPR} &mdash; @{OTL}
